frontend/public/assets/material-icons/video.svg

<svg xmlns="http://www.w3.org/2000/svg" viewBox="0 0 32 32"><path fill="#ff9800" d="m24 6 2 6h-4l-2-6h-3l2 6h-4l-2-6h-3l2 6H8L6 6H5a3 3 0 0 0-3 3v14a3 3 0 0 0 3 3h22a3 3 0 0 0 3-3V6Z"/></svg>

<svg xmlns="http://www.w3.org/2000/svg" viewBox="0 0 32 32">
  <path d="M24,6l2,6H22L20,6H17l2,6H15L13,6H10l2,6H8L6,6H5A3,3,0,0,0,2,9V23a3,3,0,0,0,3,3H27a3,3,0,0,0,3-3V6Z" style="fill: #ff9800"/>
</svg>
